X: 1
T: Katy Cruel
S: "allybeag" <ally@situponseats.co.uk> tradtunes 2012-3-17
N: Misidentified as "The Cruel War", may be known by that name.
M: 2/4
L: 1/16
R:
K:G
%
z4z2e2 |\
e2f2 g2e2 | f3f e2ff | g2e2 f2d2 | e2f2 g2e2 | d3d B2dd | d2e2 d2B2 |
d4 (3e2e2e2 | B4g3a | b2B2 B2B2 | e4z4 | e2ef g2eg | f2d2 e2ef | g2eg f2d2 |
e2f2 g2ee | d2B2 d3d | d2ee d2B2 | d4 eeee | B4 g3a | b2B2 B2B2 | e4 z4 :|
